assets/img/wallet.svg

<svg fill="none" height="11" viewBox="0 0 133 11" width="133" xmlns="http://www.w3.org/2000/svg"><path d="m5.47302 10.7081c2.772 0 4.77398-1.69405 5.17998-4.03205h-3.23398c-.238.952-.938 1.344-1.792 1.344-1.232 0-2.044-.784-2.044-2.562 0-1.736.756-2.506 2.002-2.506.91 0 1.582.434 1.82 1.358h3.26198c-.448-2.436-2.08598-4.045996-5.01198-4.045996-3.29 0-5.348004 2.015996-5.348004 5.193996 0 3.206 2.128004 5.25005 5.166004 5.25005zm10.95378-.014c3.108 0 5.278-2.01605 5.278-5.22205 0-3.192-2.17-5.207996-5.278-5.207996s-5.278 2.015996-5.278 5.207996c0 3.206 2.156 5.22205 5.278 5.22205zm0-2.68805c-1.176 0-2.002-.742-2.002-2.534 0-1.778.826-2.52 2.002-2.52s2.002.742 2.002 2.52c0 1.792-.826 2.534-2.002 2.534zm12.3759-7.517995v1.623995c0 1.358 0 2.548.042 3.794-.322-.672-.658-1.344-.966-1.876l-2.058-3.541995h-3.29v9.968045h3.08v-1.62405c0-1.274-.014-2.408-.056-3.584.28.546.588 1.078.938 1.666l2.1 3.54205h3.29v-9.968045zm10.4727 0v1.623995c0 1.358 0 2.548.042 3.794-.322-.672-.658-1.344-.966-1.876l-2.058-3.541995h-3.29v9.968045h3.08v-1.62405c0-1.274-.014-2.408-.056-3.584.28.546.588 1.078.938 1.666l2.1 3.54205h3.29v-9.968045zm12.3766 2.715995v-2.715995h-8.176v9.968045h8.176v-2.71605h-5.012v-.938h4.634v-2.618h-4.634v-.98zm5.7878 7.50405c2.772 0 4.774-1.69405 5.18-4.03205h-3.234c-.238.952-.938 1.344-1.792 1.344-1.232 0-2.044-.784-2.044-2.562 0-1.736.756-2.506 2.002-2.506.91 0 1.582.434 1.82 1.358h3.262c-.448-2.436-2.086-4.045996-5.012-4.045996-3.29 0-5.348 2.015996-5.348 5.193996 0 3.206 2.128 5.25005 5.166 5.25005zm13.876-10.220045h-8.68v2.715995h2.758v7.25205h3.164v-7.25205h2.758zm14.406 0-.56 2.953995c-.224 1.176-.434 2.366-.644 3.514-.196-1.148-.434-2.338-.658-3.514l-.588-2.953995h-3.038l-.588 2.953995c-.224 1.176-.462 2.366-.658 3.514-.21-1.148-.42-2.338-.644-3.514l-.56-2.953995h-3.234l2.632 9.968045h3.388l.658-3.03805c.196-.868.364-1.736.532-2.59.154.854.322 1.722.518 2.59l.658 3.03805h3.388l2.632-9.968045zm9.526 9.968045h3.276l-3.57-9.968045h-3.864l-3.374 9.968045h3.164l.392-1.30205h3.584zm-3.304-3.61205.686-2.296.42-1.484c.126.49.28.994.42 1.484l.686 2.296zm10.1082.896v-7.251995h-3.1639v9.968045h7.4479v-2.71605zm8.217 0v-7.251995h-3.164v9.968045h7.448v-2.71605zm13.229-4.536v-2.715995h-8.176v9.968045h8.176v-2.71605h-5.012v-.938h4.634v-2.618h-4.634v-.98zm9.246-2.715995h-8.68v2.715995h2.758v7.25205h3.164v-7.25205h2.758z" fill="#000"/></svg>

<svg width="133" height="11" viewBox="0 0 133 11" fill="none" xmlns="http://www.w3.org/2000/svg">
<path d="M5.47302 10.7081C8.24502 10.7081 10.247 9.01405 10.653 6.67605H7.41902C7.18102 7.62805 6.48102 8.02005 5.62702 8.02005C4.39502 8.02005 3.58302 7.23605 3.58302 5.45805C3.58302 3.72205 4.33902 2.95205 5.58502 2.95205C6.49502 2.95205 7.16702 3.38605 7.40502 4.31005H10.667C10.219 1.87405 8.58102 0.264054 5.65502 0.264054C2.36502 0.264054 0.307016 2.28005 0.307016 5.45805C0.307016 8.66405 2.43502 10.7081 5.47302 10.7081ZM16.4268 10.6941C19.5348 10.6941 21.7048 8.67805 21.7048 5.47205C21.7048 2.28005 19.5348 0.264054 16.4268 0.264054C13.3188 0.264054 11.1488 2.28005 11.1488 5.47205C11.1488 8.67805 13.3048 10.6941 16.4268 10.6941ZM16.4268 8.00605C15.2508 8.00605 14.4248 7.26405 14.4248 5.47205C14.4248 3.69405 15.2508 2.95205 16.4268 2.95205C17.6028 2.95205 18.4288 3.69405 18.4288 5.47205C18.4288 7.26405 17.6028 8.00605 16.4268 8.00605ZM28.8027 0.488055V2.11205C28.8027 3.47005 28.8027 4.66005 28.8447 5.90605C28.5227 5.23405 28.1867 4.56205 27.8787 4.03005L25.8207 0.488055H22.5307V10.4561H25.6107V8.83205C25.6107 7.55805 25.5967 6.42405 25.5547 5.24805C25.8347 5.79405 26.1427 6.32605 26.4927 6.91405L28.5927 10.4561H31.8827V0.488055H28.8027ZM39.2754 0.488055V2.11205C39.2754 3.47005 39.2754 4.66005 39.3174 5.90605C38.9954 5.23405 38.6594 4.56205 38.3514 4.03005L36.2934 0.488055H33.0034V10.4561H36.0834V8.83205C36.0834 7.55805 36.0694 6.42405 36.0274 5.24805C36.3074 5.79405 36.6154 6.32605 36.9654 6.91405L39.0654 10.4561H42.3554V0.488055H39.2754ZM51.652 3.20405V0.488055H43.476V10.4561H51.652V7.74005H46.64V6.80205H51.274V4.18405H46.64V3.20405H51.652ZM57.4398 10.7081C60.2118 10.7081 62.2138 9.01405 62.6198 6.67605H59.3858C59.1478 7.62805 58.4478 8.02005 57.5938 8.02005C56.3618 8.02005 55.5498 7.23605 55.5498 5.45805C55.5498 3.72205 56.3058 2.95205 57.5518 2.95205C58.4618 2.95205 59.1338 3.38605 59.3718 4.31005H62.6338C62.1858 1.87405 60.5478 0.264054 57.6218 0.264054C54.3318 0.264054 52.2738 2.28005 52.2738 5.45805C52.2738 8.66405 54.4018 10.7081 57.4398 10.7081ZM71.3158 0.488055H62.6358V3.20405H65.3938V10.4561H68.5578V3.20405H71.3158V0.488055ZM85.7218 0.488055L85.1618 3.44205C84.9378 4.61805 84.7278 5.80805 84.5178 6.95605C84.3218 5.80805 84.0838 4.61805 83.8598 3.44205L83.2718 0.488055H80.2338L79.6458 3.44205C79.4218 4.61805 79.1838 5.80805 78.9878 6.95605C78.7778 5.80805 78.5678 4.61805 78.3438 3.44205L77.7838 0.488055H74.5498L77.1818 10.4561H80.5698L81.2278 7.41805C81.4238 6.55005 81.5918 5.68205 81.7598 4.82805C81.9138 5.68205 82.0818 6.55005 82.2778 7.41805L82.9358 10.4561H86.3238L88.9558 0.488055H85.7218ZM95.2478 10.4561H98.5238L94.9538 0.488055H91.0898L87.7158 10.4561H90.8798L91.2718 9.15405H94.8558L95.2478 10.4561ZM91.9438 6.84405L92.6298 4.54805L93.0498 3.06405C93.1758 3.55405 93.3298 4.05805 93.4698 4.54805L94.1558 6.84405H91.9438ZM102.052 7.74005V0.488055H98.8881V10.4561H106.336V7.74005H102.052ZM110.269 7.74005V0.488055H107.105V10.4561H114.553V7.74005H110.269ZM123.498 3.20405V0.488055H115.322V10.4561H123.498V7.74005H118.486V6.80205H123.12V4.18405H118.486V3.20405H123.498ZM132.744 0.488055H124.064V3.20405H126.822V10.4561H129.986V3.20405H132.744V0.488055Z" fill="black"/>
</svg>
